X:1
T:Title
%%score ( 1 2 ) ( 3 4 ) ( 5 6 )
L:1/8
Q:1/4=120
M:3/4
K:C
V:1 treble nm="Picked Bass, Soprano Voice"
V:2 treble 
V:3 bass nm="Picked Bass, Tenor Voice"
V:4 bass 
V:5 bass nm="Picked Bass, Baritone Voice"
V:6 bass 
V:1
 z6 | z2 z2 d2- | d2 d2 f2 | f4 d2 | c2 z2 z2 | c2 d2 c2- | c2 c2 d_e | f4 d2 | _B2 c3 d | %9
 f2 d2 _B2- | B2 .c2 c2 | d4 z2 | d6- | d2 d2 f2- | f2 .f2 f2 | d4 f2 | d2 c4 | c2 d2 z2 | z2 d4 | %19
 c3- [cd] f2 | d2 z2 z2 | .c2 c2 d2- | d2 z2 z2 | d6 | d2 f4 | f2 f2 z2 | z2 f2 d2 | c4 c2 | %28
 z2 f4 | d2 _B2 c2- | cd f2 d2 | _B4 .c2 | c2 d4- | d4 z2 |] %34
V:2
 x6 | _B6 | x6 | x6 | z2 _B4- | B2 z2 z2 | x6 | x6 | x6 | x6 | x6 | z2 z2 _B2- | B2 z2 z2 | %13
 _B4 z2 | x6 | x6 | x6 | z2 z2 f2- | f4 _B2- | B2 z2 z2 | z2 _B4- | B2 z2 z2 | z2 _B4- | %23
 B2 z2 _B2- | B2 z2 z2 | z2 z2 d2- | d4 z2 | x6 | d2 z/4 .e3/4 z z2 | x6 | x6 | x6 | x6 | x6 |] %34
V:3
 z6 | z2 G,4 | z2 z2 _B,2- | B,2 z2 z2 | z2 D4- | [CD]2 D2 z/ .C3/2 | z2 z2 G,2 | _B,6 | _B,4 z2 | %9
 _B,2[K:treble] z2 D2- | D2 C2 C2 | z6 | z2 F4- | F2 z2[K:bass] z2 | z2 z2 _B,2- | B,2 z2 z2 | %16
 D4 z2 | z2 G,2- [G,_B,-]2 | B,2 G,2 _B,2 | F,3 G, _B,2 | z2 D4- | D2 z2 z2 | z2 D4- | D2 z2 z2 | %24
 F2 _B,4 | _B,2 B,2 D2- | D2 C2[K:bass] D2 | F,4 F,2 | z2 _B,4 | G,2 _B,2 z2 | %30
 z G, _B,2[K:treble] z2 | D4 C2 | C2 _B,4- | B,4 z2 |] %34
V:4
 x6 | F,2 z2 _B,2- | B,2- [G,B,]2 z2 | F,3 G, _B,2 | C4 z2 | z2 z2 F,2- | F,2 F,4 | z2 z2 G,2- | %8
 G,2 F,3- [F,G,] | z2[K:treble] C4 | x6 | _B,4 D2- | D2 z2 z2 | D2 F2[K:bass] _B,2- | B,2 _B,2 z2 | %15
 D4 C2 | z2 F,4 | F,4 z2 | x6 | x6 | C2 z2 z2 | .C2 C2 _B,2- | B,2 z2 z2 | F4- [DF]2 | x6 | x6 | %26
 x4[K:bass] x2 | x6 | G,4 z2 | z2 z2 F,2- | F,2 z2[K:treble] C2- | C2 z2 z2 | x6 | x6 |] %34
V:5
 z6 | F,6 | z6 | F,4 D,2 | z2 _B,4- | [F,B,]2 D,2 F,2- | F,2 F,2 G,2 | _B,4 D2 | _B,2 F,3 G, | %9
 z2 G,4 | z6 | _B,,4 _B,2 | _B,6 | .F,2 F,2 _B,,2- | B,,2 ._B,,2 B,,2 | _B,4 F,2 | D,2 F,4 | %17
 F,4 z2 | z2 D2- [_B,D]2 | z2 z2 _B,2- | B,2 z2 z2 | F,2 F,2 _B,,2- | B,,2 _B,4 | _B,4 .F,2 | %24
 F,2 _B,,4 | z2 z2 _B,2- | B,2 z2 z2 | F,3 z/4 .F,3/4 F,2- | F,2 _B,4 | D2 _B,2 z2 | z G, _B,2 z2 | %31
 D,4 .F,2 | F,2 _B,,4- | B,,4 z2 |] %34
V:6
 x6 | z2 z2 _B,,2- | B,,2 ._B,,2 B,,2 | x6 | F,4 z2 | x6 | x6 | x6 | x6 | _B,2 z2 D,2- | %10
 D,2 F,2 F,2 | x6 | x6 | x6 | x6 | x6 | x6 | z2 z2 _B,2- | B,4 z2 | F,3 G, z2 | G,2 D,4 | x6 | x6 | %23
 x6 | x6 | ._B,,2 B,,2 z2 | z _B,, F,2 D,2 | x6 | x6 | z2 z2 F,2- | F,2 z2 G,2- | G,2 z2 z2 | x6 | %33
 x6 |] %34

